X: 1
T: Mount Stewart House
C:
R: march
Z: 2012 John Chambers <jc:trillian.mit.edu>
F: http://gordonpb.stormpages.com/music/mntstewt.gif
M: 2/4
L: 1/16
K: D
ag |\
"A"f2d2 d2A2 | "G"B2d2 "D"A2d2 | "Em"B2e2 g>fe>d | "A"c2e2 e2ag |\
"A"f2d2 d2A2 | "G"B>cd>B "D"A2d>B | "Em"B>cd>f "A"g>fe>d | "D"A2d2 d2 :|
fg |\
"D"a3f d2a2 | f2d2 a3f | "Em"e>gf>a g>fe>d | "A"c2e2 e2fg |\
"D"a3f d2a2 | f2d2 a3f | "Em"e2e>f g>fe>d | "A7"c2e2 e2 |]
fg |\
"D"a3f d2a2 | f2d2 a3f | "Em"e>gf>a g>fe>d | "A"c2e2 e2ag |\
"A"f2d2 d2A2 | "G"B>cd>B  "D"A2d>B | "Em"B>cd>f "A7"g>fe>d  | "D"A2d2 d2 |]
